src/pos-icons/unfold-less-horizontal.svg

<svg height="24" viewBox="0 0 24 24" width="24" xmlns="http://www.w3.org/2000/svg"><path d="m16.59 5.41-1.42-1.41-3.17 3.17-3.17-3.17-1.42 1.41 4.59 4.59m-4.59 8.59 1.42 1.41 3.17-3.17 3.17 3.17 1.41-1.41-4.58-4.59z"/></svg>

<?xml version="1.0" encoding="UTF-8"?><!DOCTYPE svg PUBLIC "-//W3C//DTD SVG 1.1//EN" "http://www.w3.org/Graphics/SVG/1.1/DTD/svg11.dtd"><svg xmlns="http://www.w3.org/2000/svg" xmlns:xlink="http://www.w3.org/1999/xlink" version="1.1" id="mdi-unfold-less-horizontal" width="24" height="24" viewBox="0 0 24 24"><path d="M16.59,5.41L15.17,4L12,7.17L8.83,4L7.41,5.41L12,10M7.41,18.59L8.83,20L12,16.83L15.17,20L16.58,18.59L12,14L7.41,18.59Z" /></svg>
